X: 1142
T: THE SEA SHORE
B: Oliver Ditson "The Boston Collection of Instrumental Music" 1910 p.114 #2
F: http://conquest.imslp.info/files/imglnks/usimg/8/8f/IMSLP175643-PMLP309456-bostoncollection00bost_bw.pdf
%: 2012 John Chambers <jc:trillian.mit.edu>
M: 2/4
L: 1/16
K: D
(3ABc |\
dfag fedc | Bgba gfed | cdef gbag | fedc dABc |\
dfag fedc | Bgba gfed | cdef geag | fedc d2 |]
fg |\
adcd cBge | dcba ^gafd | adcd cBge | dece defg |\
adcd cBge | dcba ^gafd | adcd cBge | dece "^da Capo"d2 ]
f2 |\
f>ff>f b3b | ^abc'a bc'd'2 | e>ee>e a3a | ^gabg a2fg |\
adcd cBge | dcba ^gafd | adcd cBge | dece "^da Capo"d2 ]
%%begintext align
One lady forward and back twice.
Opposite gentleman the same.
Chassez across, lead to sides and form two lines.
Forward eight and turn partners.
%%endtext

%%sep 1 1 500
%%sep 1 1 500
